;FLAVOR:Marlin
;TIME:6559
;Filament used: 4.20246m
;Layer height: 0.2
;MINX:51.218
;MINY:51.209
;MINZ:0.2
;MAXX:183.794
;MAXY:183.791
;MAXZ:9
;Generated with Cura_SteamEngine 5.3.1
M140 S50
M105
M190 S50
M104 S200
M105
M109 S200
M82 ;absolute extrusion mode
; Ender 3 Custom Start G-code
G92 E0 ; Reset Extruder
G28 ; Home all axes
G1 Z2.0 F3000 ; Move Z Axis up little to prevent scratching of Heat Bed
G1 X0.1 Y20 Z0.3 F5000.0 ; Move to start position
G1 X0.1 Y200.0 Z0.3 F1500.0 E15 ; Draw the first line
G1 X0.4 Y200.0 Z0.3 F5000.0 ; Move to side a little
G1 X0.4 Y20 Z0.3 F1500.0 E30 ; Draw the second line
G92 E0 ; Reset Extruder
G1 Z2.0 F3000 ; Move Z Axis up little to prevent scratching of Heat Bed
G1 X5 Y20 Z0.3 F5000.0 ; Move over to prevent blob squish
G92 E0
G92 E0
G1 F2700 E-5
;LAYER_COUNT:45
;LAYER:0
M107
G0 F6000 X71.875 Y71.642 Z0.2
;TYPE:SKIRT
G1 F2700 E0
G1 F1200 X73.386 Y70.186 E0.06979
G1 X73.692 Y69.902 E0.08368
G1 X74.99 Y68.74 E0.14162
G1 X75.299 Y68.473 E0.1552
G1 X76.664 Y67.331 E0.2144
G1 X76.974 Y67.08 E0.22766
G1 X78.335 Y66.015 E0.28514
G1 X78.656 Y65.772 E0.29853
G1 X80.048 Y64.755 E0.35587
G1 X80.391 Y64.513 E0.36983
G1 X81.946 Y63.457 E0.43235
G1 X83.682 Y62.354 E0.50076
G1 X84.04 Y62.136 E0.5147
G1 X85.69 Y61.172 E0.57826
G1 X86.057 Y60.966 E0.59226
G1 X87.895 Y59.982 E0.6616
G1 X89.435 Y59.214 E0.71884
G1 X89.819 Y59.031 E0.73298
G1 X91.473 Y58.277 E0.79344
G1 X91.85 Y58.113 E0.80712
G1 X93.454 Y57.446 E0.86489
G1 X93.827 Y57.298 E0.87824
G1 X95.495 Y56.668 E0.93755
G1 X95.878 Y56.531 E0.95107
G1 X97.501 Y55.979 E1.00809
G1 X97.891 Y55.853 E1.02172
G1 X99.584 Y55.34 E1.08056
G1 X99.971 Y55.23 E1.09394
G1 X101.643 Y54.783 E1.15151
G1 X102.053 Y54.681 E1.16556
G1 X103.896 Y54.256 E1.22847
G1 X104.313 Y54.167 E1.24265
G1 X106.019 Y53.836 E1.30045
G1 X108.085 Y53.498 E1.37008
G1 X108.492 Y53.439 E1.38376
G1 X110.288 Y53.212 E1.44397
G1 X110.699 Y53.167 E1.45772
G1 X112.436 Y53.007 E1.51573
G1 X112.849 Y52.976 E1.52951
G1 X114.661 Y52.871 E1.58988
G1 X115.068 Y52.855 E1.60343
G1 X117.183 Y52.809 E1.67379
G1 X118.947 Y52.824 E1.73246
G1 X119.356 Y52.835 E1.74607
G1 X121.091 Y52.908 E1.80383
G1 X121.508 Y52.933 E1.81772
G1 X123.352 Y53.074 E1.87923
G1 X123.765 Y53.112 E1.89303
G1 X125.481 Y53.302 E1.95045
G1 X127.536 Y53.591 E2.01947
G1 X127.941 Y53.656 E2.03311
G1 X129.732 Y53.975 E2.09362
G1 X130.132 Y54.053 E2.10718
G1 X131.871 Y54.423 E2.16631
G1 X132.281 Y54.518 E2.18031
G1 X134.339 Y55.037 E2.2509
G1 X136.121 Y55.545 E2.31253
G1 X138.149 Y56.192 E2.38333
G1 X138.532 Y56.322 E2.39678
G1 X140.2 Y56.921 E2.45573
G1 X140.59 Y57.068 E2.46959
G1 X142.293 Y57.746 E2.53056
G1 X142.671 Y57.904 E2.54419
G1 X144.186 Y58.567 E2.59919
G1 X146.194 Y59.519 E2.6731
G1 X146.567 Y59.705 E2.68696
G1 X148.149 Y60.528 E2.74628
G1 X148.499 Y60.717 E2.7595
G1 X149.943 Y61.529 E2.81461
G1 X150.302 Y61.739 E2.82844
G1 X151.907 Y62.715 E2.89092
G1 X152.256 Y62.936 E2.90466
G1 X153.693 Y63.878 E2.9618
G1 X154.03 Y64.107 E2.97536
G1 X155.447 Y65.105 E3.033
G1 X155.779 Y65.347 E3.04667
G1 X157.225 Y66.44 E3.10695
G1 X157.548 Y66.692 E3.12058
G1 X158.912 Y67.797 E3.17897
G1 X160.492 Y69.158 E3.24832
G1 X160.793 Y69.428 E3.26177
G1 X162.118 Y70.655 E3.32184
G1 X162.418 Y70.942 E3.33565
G1 X163.693 Y72.206 E3.39536
G1 X163.982 Y72.502 E3.40912
G1 X165.178 Y73.771 E3.46712
G1 X165.461 Y74.082 E3.4811
G1 X166.644 Y75.427 E3.54068
G1 X166.908 Y75.737 E3.55422
G1 X168.058 Y77.136 E3.61446
G1 X168.305 Y77.447 E3.62767
G1 X169.289 Y78.727 E3.68136
G1 X169.537 Y79.062 E3.69523
G1 X170.653 Y80.621 E3.759
G1 X170.884 Y80.955 E3.7725
G1 X171.768 Y82.281 E3.82551
G1 X171.985 Y82.618 E3.83884
G1 X172.947 Y84.169 E3.89954
G1 X173.165 Y84.535 E3.91371
G1 X174.097 Y86.162 E3.97608
G1 X174.297 Y86.525 E3.98986
G1 X175.101 Y88.046 E4.04708
G1 X175.284 Y88.406 E4.06051
G1 X176.051 Y89.981 E4.11878
G1 X176.225 Y90.354 E4.13247
G1 X176.929 Y91.933 E4.18997
G1 X177.75 Y93.933 E4.26188
G1 X177.899 Y94.316 E4.27555
G1 X178.501 Y95.95 E4.33346
G1 X178.638 Y96.344 E4.34734
G1 X179.217 Y98.098 E4.40877
G1 X179.341 Y98.497 E4.42267
G1 X179.833 Y100.179 E4.48096
G1 X179.942 Y100.575 E4.49462
G1 X180.38 Y102.284 E4.5533
G1 X180.827 Y104.264 E4.62081
G1 X180.91 Y104.669 E4.63456
G1 X181.248 Y106.473 E4.69561
G1 X181.317 Y106.88 E4.70934
G1 X181.581 Y108.61 E4.76754
G1 X181.635 Y109.008 E4.7809
G1 X181.834 Y110.68 E4.8369
G1 X181.875 Y111.077 E4.85018
G1 X182.029 Y112.869 E4.91
G1 X182.059 Y113.3 E4.92437
G1 X182.153 Y115.165 E4.98648
G1 X182.166 Y115.585 E5.00046
G1 X182.194 Y117.35 E5.05917
G1 X182.194 Y117.758 E5.07274
G1 X182.163 Y119.528 E5.13162
G1 X182.149 Y119.936 E5.14519
G1 X182.059 Y121.699 E5.20391
G1 X182.03 Y122.119 E5.21791
G1 X181.838 Y124.29 E5.2904
G1 X181.638 Y125.974 E5.3468
G1 X181.583 Y126.376 E5.3603
G1 X181.317 Y128.119 E5.41894
G1 X181.249 Y128.522 E5.43254
G1 X180.911 Y130.328 E5.49365
G1 X180.83 Y130.723 E5.50706
G1 X180.482 Y132.294 E5.56058
G1 X180.385 Y132.701 E5.57449
G1 X179.908 Y134.551 E5.63804
G1 X179.799 Y134.945 E5.65163
G1 X179.337 Y136.517 E5.70613
G1 X179.218 Y136.899 E5.71944
G1 X178.639 Y138.654 E5.7809
G1 X178.499 Y139.054 E5.795
G1 X177.897 Y140.686 E5.85285
G1 X177.752 Y141.06 E5.8662
G1 X177.087 Y142.695 E5.9249
G1 X176.922 Y143.082 E5.93889
G1 X176.181 Y144.738 E5.99924
G1 X176.006 Y145.112 E6.01297
G1 X175.223 Y146.714 E6.07228
G1 X175.033 Y147.086 E6.08617
G1 X174.216 Y148.622 E6.14403
G1 X174.026 Y148.966 E6.1571
G1 X173.161 Y150.473 E6.2149
G1 X172.946 Y150.833 E6.22884
G1 X171.776 Y152.707 E6.30232
G1 X170.892 Y154.035 E6.35538
G1 X170.655 Y154.378 E6.36925
G1 X169.535 Y155.942 E6.43323
G1 X169.277 Y156.289 E6.44761
G1 X168.222 Y157.657 E6.50507
G1 X166.845 Y159.337 E6.57732
G1 X166.578 Y159.651 E6.59103
G1 X165.436 Y160.945 E6.64843
G1 X163.989 Y162.491 E6.71886
G1 X163.694 Y162.794 E6.73293
G1 X162.418 Y164.059 E6.79269
G1 X162.121 Y164.344 E6.80638
G1 X160.827 Y165.543 E6.86505
G1 X160.518 Y165.82 E6.87886
G1 X159.16 Y166.995 E6.93858
G1 X158.848 Y167.256 E6.95211
G1 X157.5 Y168.346 E7.00977
G1 X157.18 Y168.596 E7.02328
G1 X155.772 Y169.659 E7.08195
G1 X155.442 Y169.899 E7.09553
G1 X154.028 Y170.894 E7.15303
G1 X153.682 Y171.129 E7.16694
G1 X152.117 Y172.152 E7.22913
G1 X151.766 Y172.373 E7.24293
G1 X150.278 Y173.275 E7.3008
G1 X148.439 Y174.316 E7.37109
G1 X148.075 Y174.513 E7.38485
G1 X146.524 Y175.317 E7.44296
G1 X146.165 Y175.496 E7.4563
G1 X144.569 Y176.258 E7.51512
G1 X142.672 Y177.095 E7.58409
G1 X142.293 Y177.254 E7.59776
G1 X140.59 Y177.932 E7.65872
G1 X140.204 Y178.078 E7.67245
G1 X138.546 Y178.674 E7.73105
G1 X138.158 Y178.806 E7.74468
G1 X136.515 Y179.335 E7.80209
G1 X136.121 Y179.455 E7.81579
G1 X134.339 Y179.963 E7.87742
G1 X133.933 Y180.071 E7.89139
G1 X132.225 Y180.495 E7.94992
G1 X131.817 Y180.588 E7.96384
G1 X129.686 Y181.034 E8.03625
G1 X127.936 Y181.345 E8.09537
G1 X127.523 Y181.411 E8.10928
G1 X125.756 Y181.663 E8.16865
G1 X123.754 Y181.889 E8.23566
G1 X123.353 Y181.926 E8.24905
G1 X121.51 Y182.067 E8.31053
G1 X121.085 Y182.093 E8.32469
G1 X119.302 Y182.167 E8.38404
G1 X118.895 Y182.177 E8.39759
G1 X117.177 Y182.191 E8.45473
G1 X115.068 Y182.145 E8.52489
G1 X114.663 Y182.129 E8.53837
G1 X112.849 Y182.024 E8.59881
G1 X112.434 Y181.992 E8.61265
G1 X110.699 Y181.832 E8.6706
G1 X110.286 Y181.787 E8.68442
G1 X108.47 Y181.557 E8.7453
G1 X108.064 Y181.499 E8.75894
G1 X106.405 Y181.232 E8.81483
G1 X106.01 Y181.162 E8.82817
G1 X104.214 Y180.812 E8.88903
G1 X103.804 Y180.724 E8.90298
G1 X102.11 Y180.333 E8.9608
G1 X101.708 Y180.233 E8.97458
G1 X99.977 Y179.771 E9.03417
G1 X99.59 Y179.661 E9.04755
G1 X97.934 Y179.16 E9.1051
G1 X97.536 Y179.032 E9.119
G1 X95.445 Y178.314 E9.19253
G1 X93.784 Y177.686 E9.2516
G1 X91.838 Y176.882 E9.32163
G1 X91.467 Y176.72 E9.33509
G1 X89.818 Y175.968 E9.39537
G1 X89.435 Y175.786 E9.40948
G1 X87.887 Y175.014 E9.46701
G1 X86.056 Y174.033 E9.5361
G1 X85.69 Y173.828 E9.55005
G1 X84.04 Y172.864 E9.61361
G1 X83.67 Y172.639 E9.62801
G1 X82.172 Y171.691 E9.68698
G1 X81.833 Y171.469 E9.70045
G1 X80.372 Y170.475 E9.75923
G1 X80.032 Y170.235 E9.77307
G1 X78.628 Y169.208 E9.83093
G1 X77.015 Y167.955 E9.89886
G1 X76.696 Y167.697 E9.91251
G1 X75.296 Y166.525 E9.97323
G1 X74.986 Y166.257 E9.98686
G1 X73.68 Y165.087 E10.04518
G1 X72.154 Y163.634 E10.11526
G1 X71.871 Y163.354 E10.1285
G1 X70.379 Y161.82 E10.19968
G1 X69.123 Y160.447 E10.26157
G1 X68.84 Y160.125 E10.27583
G1 X67.721 Y158.812 E10.33321
G1 X67.46 Y158.496 E10.34684
G1 X66.337 Y157.085 E10.40682
G1 X66.082 Y156.753 E10.42074
G1 X64.999 Y155.292 E10.48123
G1 X64.761 Y154.959 E10.49484
G1 X63.806 Y153.576 E10.55074
G1 X63.583 Y153.241 E10.56413
G1 X62.584 Y151.687 E10.62557
G1 X62.365 Y151.334 E10.63939
G1 X61.513 Y149.904 E10.69475
G1 X61.315 Y149.559 E10.70798
G1 X60.455 Y148.002 E10.76714
G1 X60.264 Y147.643 E10.78067
G1 X59.473 Y146.091 E10.83861
G1 X59.289 Y145.713 E10.85259
G1 X58.496 Y144.015 E10.91492
G1 X58.322 Y143.624 E10.92915
G1 X57.491 Y141.654 E11.00027
G1 X56.864 Y140.035 E11.05801
G1 X56.724 Y139.654 E11.07151
G1 X56.146 Y138 E11.12979
G1 X56.016 Y137.606 E11.14359
G1 X55.378 Y135.539 E11.21554
G1 X54.924 Y133.895 E11.27226
G1 X54.823 Y133.505 E11.28566
G1 X54.411 Y131.795 E11.34416
G1 X54.319 Y131.381 E11.35827
G1 X53.945 Y129.552 E11.42036
G1 X53.868 Y129.138 E11.43437
G1 X53.57 Y127.372 E11.49394
G1 X53.509 Y126.967 E11.50756
G1 X53.277 Y125.241 E11.56548
G1 X53.23 Y124.845 E11.57874
G1 X53.063 Y123.196 E11.63387
G1 X53.029 Y122.79 E11.64742
G1 X52.903 Y120.927 E11.70953
G1 X52.881 Y120.501 E11.72371
G1 X52.824 Y118.75 E11.78198
G1 X52.818 Y118.346 E11.79542
G1 X52.819 Y116.599 E11.85353
G1 X52.882 Y114.497 E11.92347
G1 X52.903 Y114.066 E11.93782
G1 X53.033 Y112.163 E12.00127
G1 X53.068 Y111.751 E12.01502
G1 X53.243 Y110.042 E12.07216
G1 X53.51 Y108.023 E12.13989
G1 X53.876 Y105.821 E12.21414
G1 X53.952 Y105.414 E12.22791
G1 X54.305 Y103.685 E12.2866
G1 X54.396 Y103.273 E12.30064
G1 X54.822 Y101.501 E12.36125
G1 X54.923 Y101.111 E12.37465
G1 X55.475 Y99.131 E12.44302
G1 X55.996 Y97.455 E12.50139
G1 X56.128 Y97.056 E12.51537
G1 X56.739 Y95.306 E12.57702
G1 X56.885 Y94.91 E12.59106
G1 X57.52 Y93.275 E12.6494
G1 X57.669 Y92.909 E12.66254
G1 X58.333 Y91.351 E12.71887
G1 X58.502 Y90.971 E12.7327
G1 X59.289 Y89.286 E12.79456
G1 X59.475 Y88.906 E12.80863
G1 X60.266 Y87.355 E12.86654
G1 X60.456 Y86.997 E12.88002
G1 X61.317 Y85.439 E12.93922
G1 X62.364 Y83.669 E13.00762
G1 X62.58 Y83.319 E13.0213
G1 X63.585 Y81.754 E13.08316
G1 X63.814 Y81.411 E13.09688
G1 X64.762 Y80.039 E13.15234
G1 X65.002 Y79.704 E13.16605
G1 X66.098 Y78.227 E13.22722
G1 X66.352 Y77.897 E13.24107
G1 X67.463 Y76.502 E13.30039
G1 X67.725 Y76.183 E13.31412
G1 X68.87 Y74.841 E13.37279
G1 X69.148 Y74.527 E13.38674
G1 X70.378 Y73.182 E13.44736
G1 X70.663 Y72.88 E13.46117
G1 X71.875 Y71.642 E13.5188
G0 F6000 X71.597 Y71.354
G1 F1200 X73.114 Y69.893 E13.58885
G1 X73.425 Y69.604 E13.60297
G1 X74.728 Y68.437 E13.66115
G1 X75.042 Y68.166 E13.67494
G1 X76.412 Y67.02 E13.73435
G1 X76.727 Y66.765 E13.74783
G1 X78.094 Y65.696 E13.80555
G1 X78.42 Y65.449 E13.81915
G1 X79.817 Y64.428 E13.8767
G1 X80.166 Y64.182 E13.8909
G1 X81.731 Y63.119 E13.95383
G1 X83.474 Y62.012 E14.0225
G1 X83.838 Y61.791 E14.03667
G1 X85.494 Y60.823 E14.10046
G1 X85.868 Y60.613 E14.11473
G1 X87.716 Y59.624 E14.18444
G1 X89.263 Y58.853 E14.24193
G1 X89.653 Y58.667 E14.2563
G1 X91.313 Y57.91 E14.31699
G1 X93.306 Y57.074 E14.38887
G1 X95.36 Y56.291 E14.46198
G1 X95.749 Y56.152 E14.47572
G1 X97.378 Y55.598 E14.53295
G1 X97.775 Y55.47 E14.54682
G1 X99.475 Y54.955 E14.6059
G1 X101.546 Y54.395 E14.67726
G1 X101.963 Y54.291 E14.69155
G1 X103.813 Y53.865 E14.75469
G1 X104.237 Y53.774 E14.76912
G1 X105.954 Y53.441 E14.82729
G1 X108.028 Y53.102 E14.89719
G1 X108.442 Y53.042 E14.9111
G1 X110.244 Y52.814 E14.97151
G1 X110.662 Y52.769 E14.98549
G1 X112.406 Y52.608 E15.04375
G1 X112.826 Y52.577 E15.05775
G1 X114.645 Y52.471 E15.11836
G1 X115.059 Y52.455 E15.13214
G1 X117.186 Y52.409 E15.2029
G1 X118.958 Y52.424 E15.26184
G1 X119.373 Y52.435 E15.27564
G1 X121.115 Y52.509 E15.33364
G1 X121.538 Y52.534 E15.34773
G1 X123.809 Y52.714 E15.4235
G1 X125.537 Y52.906 E15.48133
G1 X127.599 Y53.196 E15.55058
G1 X128.011 Y53.262 E15.56446
G1 X129.809 Y53.582 E15.6252
G1 X131.961 Y54.033 E15.69833
G1 X132.379 Y54.13 E15.71261
G1 X134.449 Y54.652 E15.78361
G1 X136.243 Y55.164 E15.84566
G1 X138.278 Y55.813 E15.9167
G1 X138.667 Y55.946 E15.93038
G1 X140.738 Y56.696 E16.00364
G1 X142.447 Y57.377 E16.06483
G1 X142.831 Y57.538 E16.07868
G1 X144.357 Y58.206 E16.13408
G1 X146.373 Y59.161 E16.20828
G1 X146.752 Y59.35 E16.22236
G1 X148.695 Y60.368 E16.29532
G1 X150.145 Y61.184 E16.35066
G1 X150.51 Y61.397 E16.36471
G1 X152.121 Y62.377 E16.42743
G1 X152.475 Y62.601 E16.44136
G1 X153.918 Y63.547 E16.49875
G1 X154.26 Y63.78 E16.51252
G1 X155.683 Y64.782 E16.5704
G1 X156.02 Y65.028 E16.58428
G1 X157.8 Y66.381 E16.65864
G1 X159.173 Y67.494 E16.71743
G1 X160.759 Y68.86 E16.78705
G1 X162.395 Y70.366 E16.86101
G1 X162.7 Y70.658 E16.87505
G1 X163.979 Y71.927 E16.93498
G1 X164.273 Y72.228 E16.94897
G1 X165.474 Y73.502 E17.0072
G1 X165.761 Y73.818 E17.0214
G1 X166.949 Y75.168 E17.08121
G1 X167.217 Y75.483 E17.09497
G1 X168.371 Y76.887 E17.15542
G1 X168.622 Y77.203 E17.16884
G1 X169.61 Y78.489 E17.22278
G1 X169.862 Y78.829 E17.23685
G1 X170.982 Y80.393 E17.30083
G1 X171.213 Y80.727 E17.31434
G1 X172.104 Y82.064 E17.36778
G1 X172.325 Y82.407 E17.38135
G1 X173.291 Y83.964 E17.44229
G1 X173.512 Y84.336 E17.45669
G1 X174.447 Y85.969 E17.51927
G1 X174.651 Y86.338 E17.5333
G1 X175.458 Y87.865 E17.59074
G1 X175.644 Y88.231 E17.6044
G1 X176.413 Y89.812 E17.66287
G1 X176.59 Y90.191 E17.67678
G1 X177.299 Y91.781 E17.73469
G1 X178.123 Y93.788 E17.80685
G1 X178.274 Y94.178 E17.82076
G1 X178.879 Y95.819 E17.87893
G1 X179.018 Y96.219 E17.89301
G1 X179.599 Y97.979 E17.95466
G1 X179.725 Y98.385 E17.9688
G1 X180.219 Y100.073 E18.02729
G1 X180.329 Y100.476 E18.04119
G1 X180.77 Y102.196 E18.10025
G1 X181.219 Y104.184 E18.16803
G1 X181.303 Y104.595 E18.18198
G1 X181.642 Y106.406 E18.24327
G1 X181.712 Y106.82 E18.25723
G1 X181.977 Y108.556 E18.31564
G1 X182.032 Y108.961 E18.32923
G1 X182.274 Y111.043 E18.39895
G1 X182.428 Y112.841 E18.45897
G1 X182.458 Y113.28 E18.4736
G1 X182.553 Y115.153 E18.53598
G1 X182.566 Y115.579 E18.55015
G1 X182.594 Y117.344 E18.60887
G1 X182.594 Y117.765 E18.62287
G1 X182.563 Y119.542 E18.68198
G1 X182.458 Y121.727 E18.75474
G1 X182.428 Y122.154 E18.76897
G1 X182.235 Y124.337 E18.84186
G1 X182.034 Y126.028 E18.8985
G1 X181.978 Y126.436 E18.9122
G1 X181.711 Y128.186 E18.97108
G1 X181.642 Y128.596 E18.98491
G1 X181.303 Y130.408 E19.04622
G1 X181.221 Y130.81 E19.05987
G1 X180.871 Y132.387 E19.11359
G1 X180.772 Y132.801 E19.12775
G1 X180.294 Y134.658 E19.19153
G1 X180.183 Y135.058 E19.20534
G1 X179.719 Y136.636 E19.26004
G1 X179.598 Y137.024 E19.27356
G1 X179.017 Y138.786 E19.33527
G1 X178.27 Y140.831 E19.40768
G1 X178.123 Y141.211 E19.42123
G1 X177.455 Y142.852 E19.48016
G1 X177.287 Y143.245 E19.49438
G1 X176.543 Y144.908 E19.55497
G1 X176.365 Y145.288 E19.56893
G1 X175.579 Y146.896 E19.62846
G1 X175.386 Y147.274 E19.64258
G1 X174.373 Y149.165 E19.71393
G1 X173.504 Y150.678 E19.77196
G1 X173.285 Y151.045 E19.78617
G1 X172.109 Y152.929 E19.86004
G1 X171.221 Y154.262 E19.91331
G1 X170.98 Y154.611 E19.92742
G1 X169.856 Y156.181 E19.99164
G1 X169.594 Y156.533 E20.00624
G1 X168.531 Y157.911 E20.06412
G1 X167.15 Y159.596 E20.13658
G1 X166.878 Y159.916 E20.15055
