;FLAVOR:Marlin
;TIME:6559
;Filament used: 4.20246m
;Layer height: 0.2
;MINX:51.218
;MINY:51.209
;MINZ:0.2
;MAXX:183.794
;MAXY:183.791
;MAXZ:9
;Generated with Cura_SteamEngine 5.3.1
M140 S50
M105
M190 S50
M104 S200
M105
M109 S200
M82 ;absolute extrusion mode
; Ender 3 Custom Start G-code
G92 E0 ; Reset Extruder
G28 ; Home all axes
G1 Z2.0 F3000 ; Move Z Axis up little to prevent scratching of Heat Bed
G1 X0.1 Y20 Z0.3 F5000.0 ; Move to start position
G1 X0.1 Y200.0 Z0.3 F1500.0 E15 ; Draw the first line
G1 X0.4 Y200.0 Z0.3 F5000.0 ; Move to side a little
G1 X0.4 Y20 Z0.3 F1500.0 E30 ; Draw the second line
G92 E0 ; Reset Extruder
G1 Z2.0 F3000 ; Move Z Axis up little to prevent scratching of Heat Bed
G1 X5 Y20 Z0.3 F5000.0 ; Move over to prevent blob squish
G92 E0
G92 E0
G1 F2700 E-5
;LAYER_COUNT:45
;LAYER:0
M107
;TYPE:SKIRT
;MESH:Plate (1).stl
;TYPE:WALL-INNER
;TYPE:WALL-OUTER
;TYPE:SKIN
;MESH:NONMESH
;TIME_ELAPSED:879.812632
;LAYER:1
M106 S85
;TYPE:WALL-INNER
;MESH:Plate (1).stl
;TYPE:WALL-OUTER
;TYPE:SKIN
;MESH:NONMESH
;TIME_ELAPSED:1574.278606
;LAYER:2
M106 S170
;TYPE:WALL-INNER
;MESH:Plate (1).stl
;TYPE:WALL-OUTER
;TYPE:SKIN
;MESH:NONMESH
;TIME_ELAPSED:2208.797003
;LAYER:3
M106 S255
;TYPE:WALL-INNER
;MESH:Plate (1).stl
;TYPE:WALL-OUTER
;TYPE:SKIN
;MESH:NONMESH
;TIME_ELAPSED:2850.967755
;LAYER:4
;TYPE:SUPPORT-INTERFACE
;MESH:Plate (1).stl
;TYPE:WALL-INNER
;TYPE:WALL-OUTER
;TYPE:FILL
;TYPE:SKIN
;MESH:NONMESH
;TIME_ELAPSED:3402.427736
;LAYER:5
;TYPE:SUPPORT-INTERFACE
;MESH:Plate (1).stl
;TYPE:WALL-INNER
;TYPE:WALL-OUTER
;TYPE:FILL
;TYPE:SKIN
;MESH:NONMESH
;TIME_ELAPSED:3497.834078
;LAYER:6
;TYPE:SUPPORT-INTERFACE
;MESH:Plate (1).stl
;TYPE:WALL-INNER
;TYPE:WALL-OUTER
;TYPE:FILL
;TYPE:SKIN
;MESH:NONMESH
;TIME_ELAPSED:3593.296447
;LAYER:7
;TYPE:SUPPORT-INTERFACE
;MESH:Plate (1).stl
;TYPE:WALL-INNER
;TYPE:WALL-OUTER
;TYPE:FILL
;TYPE:SKIN
;MESH:NONMESH
;TIME_ELAPSED:3685.054065
;LAYER:8
;TYPE:SUPPORT
;MESH:Plate (1).stl
;TYPE:WALL-INNER
;TYPE:WALL-OUTER
;TYPE:FILL
;TYPE:SKIN
;MESH:NONMESH
;TIME_ELAPSED:3777.214035
;LAYER:9
;TYPE:SUPPORT
;MESH:Plate (1).stl
;TYPE:WALL-INNER
;TYPE:WALL-OUTER
;TYPE:FILL
;TYPE:SKIN
;MESH:NONMESH
;TIME_ELAPSED:3869.809080
;LAYER:10
;TYPE:SUPPORT-INTERFACE
;MESH:Plate (1).stl
;TYPE:WALL-INNER
;TYPE:WALL-OUTER
;TYPE:FILL
;TYPE:SKIN
;MESH:NONMESH
;TIME_ELAPSED:3961.874853
;LAYER:11
;TYPE:SUPPORT-INTERFACE
;MESH:Plate (1).stl
;TYPE:WALL-INNER
;TYPE:WALL-OUTER
;TYPE:FILL
;TYPE:SKIN
;MESH:NONMESH
;TIME_ELAPSED:4055.688545
;LAYER:12
;TYPE:SUPPORT-INTERFACE
;MESH:Plate (1).stl
;TYPE:WALL-INNER
;TYPE:WALL-OUTER
;TYPE:FILL
;MESH:NONMESH
;TIME_ELAPSED:4146.887738
;LAYER:13
;TYPE:SUPPORT-INTERFACE
;MESH:Plate (1).stl
;TYPE:WALL-INNER
;TYPE:WALL-OUTER
;TYPE:FILL
;MESH:NONMESH
;TIME_ELAPSED:4234.881441
;LAYER:14
;TYPE:WALL-INNER
;MESH:Plate (1).stl
;TYPE:WALL-OUTER
;TYPE:FILL
;MESH:NONMESH
;TIME_ELAPSED:4316.422125
;LAYER:15
;TYPE:WALL-INNER
;MESH:Plate (1).stl
;TYPE:WALL-OUTER
;TYPE:FILL
;TYPE:SKIN
;MESH:NONMESH
;TIME_ELAPSED:4417.002763
;LAYER:16
;TYPE:WALL-INNER
;MESH:Plate (1).stl
;TYPE:WALL-OUTER
;TYPE:FILL
;TYPE:SKIN
;MESH:NONMESH
;TIME_ELAPSED:4583.273988
;LAYER:17
;TYPE:WALL-INNER
;MESH:Plate (1).stl
;TYPE:WALL-OUTER
;TYPE:FILL
;TYPE:SKIN
;MESH:NONMESH
;TIME_ELAPSED:4747.621043
;LAYER:18
;TYPE:WALL-INNER
;MESH:Plate (1).stl
;TYPE:WALL-OUTER
;TYPE:FILL
;TYPE:SKIN
;MESH:NONMESH
;TIME_ELAPSED:4914.993241
;LAYER:19
;TYPE:WALL-INNER
;MESH:Plate (1).stl
;TYPE:WALL-OUTER
;TYPE:FILL
;TYPE:SKIN
;MESH:NONMESH
;TIME_ELAPSED:5081.213245
;LAYER:20
;TYPE:WALL-INNER
;MESH:Plate (1).stl
;TYPE:WALL-OUTER
;TYPE:FILL
;MESH:NONMESH
;TIME_ELAPSED:5176.237638
;LAYER:21
;TYPE:WALL-INNER
;MESH:Plate (1).stl
;TYPE:WALL-OUTER
;TYPE:FILL
;MESH:NONMESH
;TIME_ELAPSED:5271.969920
;LAYER:22
;TYPE:WALL-INNER
;MESH:Plate (1).stl
;TYPE:WALL-OUTER
;TYPE:FILL
;MESH:NONMESH
;TIME_ELAPSED:5366.440875
;LAYER:23
;TYPE:WALL-INNER
;MESH:Plate (1).stl
;TYPE:WALL-OUTER
;TYPE:FILL
;MESH:NONMESH
;TIME_ELAPSED:5461.819009
;LAYER:24
;TYPE:WALL-INNER
;MESH:Plate (1).stl
;TYPE:WALL-OUTER
;TYPE:FILL
;MESH:NONMESH
;TIME_ELAPSED:5557.066671
;LAYER:25
;TYPE:WALL-INNER
;MESH:Plate (1).stl
;TYPE:WALL-OUTER
;TYPE:FILL
;MESH:NONMESH
;TIME_ELAPSED:5651.472798
;LAYER:26
;TYPE:WALL-INNER
;MESH:Plate (1).stl
;TYPE:WALL-OUTER
;TYPE:FILL
;TYPE:SKIN
;MESH:NONMESH
;TIME_ELAPSED:5828.017729
;LAYER:27
;TYPE:WALL-INNER
;MESH:Plate (1).stl
;TYPE:WALL-OUTER
;TYPE:FILL
;TYPE:SKIN
;MESH:NONMESH
;TIME_ELAPSED:6008.659778
;LAYER:28
;TYPE:WALL-INNER
;MESH:Plate (1).stl
;TYPE:WALL-OUTER
;TYPE:FILL
;TYPE:SKIN
;MESH:NONMESH
;TIME_ELAPSED:6184.443613
;LAYER:29
;TYPE:WALL-INNER
;MESH:Plate (1).stl
;TYPE:WALL-OUTER
;TYPE:FILL
;TYPE:SKIN
G92 E0
;MESH:NONMESH
;TIME_ELAPSED:6437.428729
;LAYER:30
;TYPE:WALL-INNER
;MESH:Plate (1).stl
;TYPE:WALL-OUTER
;TYPE:FILL
;MESH:NONMESH
;TIME_ELAPSED:6445.007400
G92 E0.9225599999999998
G0 Z6.4
;LAYER:31
G92 E0.9225599999999998
G0 Z6.4
;TYPE:WALL-INNER
G92 E0.9225599999999998
G0 Z6.4
;MESH:Plate (1).stl
G1 F600 X119.686 Y90.594 E6.06771
G1 X119.686 Y84.481 E6.27103
G1 X117.504 Y80.702 E6.41617
G1 X115.322 Y84.482 E6.56133
G1 X115.322 Y90.594 E6.76462
G0 F9000 X114.922 Y90.994
G92 E6.76462
G0 Z6.4
;TYPE:WALL-OUTER
G1 F600 X120.086 Y90.994 E6.93637
G1 X120.086 Y84.374 E7.15656
G1 X117.504 Y79.902 E7.32831
G1 X114.922 Y84.375 E7.50009
G1 X114.922 Y90.994 E7.72024
G0 F9000 X115.191 Y90.725
G0 X115.621 Y85.476
G0 X115.402 Y85.476
G92 E7.72024
G0 Z6.4
;TYPE:FILL
G1 F600 X119.529 Y84.37 E7.86234
G0 F9000 X119.339 Y84.478
G0 X119.386 Y87.75
G0 X119.605 Y87.75
G1 F600 X115.751 Y83.896 E8.04362
G0 F9000 X115.481 Y84.365
G1 F600 X115.402 Y84.662 E8.05385
G0 F9000 X115.921 Y84.662
G92 E8.05385
G0 Z6.4
;MESH:NONMESH
G0 F300 X115.921 Y84.662 Z6.6
G0 F9000 X115.591 Y90.325
G0 X115.322 Y90.594
;TIME_ELAPSED:6452.301471
G92 E8.05385
G0 Z6.4
;LAYER:32
G92 E8.05385
G0 Z6.4
;TYPE:WALL-INNER
G92 E8.05385
G0 Z6.4
;MESH:Plate (1).stl
G1 F600 X119.686 Y90.594 E8.19899
G1 X119.686 Y84.481 E8.40231
G1 X117.504 Y80.702 E8.54745
G1 X115.322 Y84.482 E8.69262
G1 X115.322 Y90.594 E8.8959
G0 F9000 X114.922 Y90.994
G92 E8.8959
G0 Z6.4
;TYPE:WALL-OUTER
G1 F600 X120.086 Y90.994 E9.06766
G1 X120.086 Y84.374 E9.28784
G1 X117.504 Y79.902 E9.45959
G1 X114.922 Y84.375 E9.63137
G1 X114.922 Y90.994 E9.85152
G0 F9000 X115.191 Y90.725
G0 X115.621 Y85.622
G0 X115.401 Y85.622
G92 E9.85152
G0 Z6.4
;TYPE:FILL
G1 F600 X119.602 Y84.496 E9.99618
G0 F9000 X119.39 Y84.56
G0 X119.386 Y87.551
G0 X119.605 Y87.551
G1 F600 X115.824 Y83.769 E10.17405
G0 F9000 X116.274 Y84.03
G92 E10.17405
G0 Z6.4
;MESH:NONMESH
G0 F300 X116.274 Y84.03 Z6.8
G0 F9000 X115.591 Y90.325
G0 X115.322 Y90.594
;TIME_ELAPSED:6459.507550
G92 E10.17405
G0 Z6.4
;LAYER:33
G92 E10.17405
G0 Z6.4
;TYPE:WALL-INNER
G92 E10.17405
G0 Z6.4
;MESH:Plate (1).stl
G1 F600 X119.686 Y90.594 E10.31919
G1 X119.686 Y84.481 E10.52251
G1 X117.504 Y80.702 E10.66765
G1 X115.322 Y84.482 E10.81282
G1 X115.322 Y90.594 E11.0161
G0 F9000 X114.922 Y90.994
G92 E11.0161
G0 Z6.4
;TYPE:WALL-OUTER
G1 F600 X120.086 Y90.994 E11.18786
G1 X120.086 Y84.374 E11.40804
G1 X117.504 Y79.902 E11.57979
G1 X114.922 Y84.375 E11.75157
G1 X114.922 Y90.994 E11.97172
G0 F9000 X115.191 Y90.725
G0 X115.621 Y85.769
G0 X115.401 Y85.769
G92 E11.97172
G0 Z6.4
;TYPE:FILL
G1 F600 X119.604 Y84.643 E12.11644
G0 F9000 X119.386 Y84.643
G0 X119.386 Y87.35
G0 X119.605 Y87.35
G1 F600 X115.897 Y83.642 E12.29086
G0 F9000 X116.347 Y83.904
G92 E12.29086
G0 Z6.4
;MESH:NONMESH
G0 F300 X116.347 Y83.904 Z7
G0 F9000 X115.591 Y90.325
G0 X115.322 Y90.594
;TIME_ELAPSED:6466.698095
G92 E12.29086
G0 Z6.4
;LAYER:34
G92 E12.29086
G0 Z6.4
;TYPE:WALL-INNER
G92 E12.29086
G0 Z6.4
;MESH:Plate (1).stl
G1 F600 X119.686 Y90.594 E12.436
G1 X119.686 Y84.481 E12.63932
G1 X117.504 Y80.702 E12.78446
G1 X115.322 Y84.482 E12.92963
G1 X115.322 Y90.594 E13.13291
G0 F9000 X114.922 Y90.994
G92 E13.13291
G0 Z6.4
;TYPE:WALL-OUTER
G1 F600 X120.086 Y90.994 E13.30467
G1 X120.086 Y84.374 E13.52485
G1 X117.504 Y79.902 E13.6966
G1 X114.922 Y84.375 E13.86838
G1 X114.922 Y90.994 E14.08853
G0 F9000 X115.191 Y90.725
G0 X115.621 Y85.915
G0 X115.401 Y85.915
G92 E14.088530000000002
G0 Z6.4
;TYPE:FILL
G1 F600 X119.604 Y84.789 E14.23325
G0 F9000 X119.386 Y84.789
G0 X119.386 Y87.15
G0 X119.605 Y87.15
G1 F600 X115.971 Y83.516 E14.40418
G0 F9000 X116.42 Y83.777
G92 E14.40418
G0 Z6.4
;MESH:NONMESH
G0 F300 X116.42 Y83.777 Z7.2
G0 F9000 X115.591 Y90.325
G0 X115.322 Y90.594
;TIME_ELAPSED:6473.867598
G92 E14.40418
G0 Z6.4
;LAYER:35
G92 E14.40418
G0 Z6.4
;TYPE:WALL-INNER
G92 E14.40418
G0 Z6.4
;MESH:Plate (1).stl
G1 F600 X119.686 Y90.594 E14.54933
G1 X119.686 Y84.481 E14.75265
G1 X117.504 Y80.702 E14.89779
G1 X115.322 Y84.482 E15.04295
G1 X115.322 Y90.594 E15.24624
G0 F9000 X114.922 Y90.994
G92 E15.24624
G0 Z6.4
;TYPE:WALL-OUTER
G1 F600 X120.086 Y90.994 E15.41799
G1 X120.086 Y84.374 E15.63818
G1 X117.504 Y79.902 E15.80993
G1 X114.922 Y84.375 E15.98171
G1 X114.922 Y90.994 E16.20186
G0 F9000 X115.191 Y90.725
G0 X119.459 Y90.295
G0 X119.459 Y90.513
G92 E16.20186
G0 Z6.4
;TYPE:FILL
G1 F600 X119.605 Y89.968 E16.22062
G0 F9000 X119.386 Y89.968
G0 X119.386 Y86.95
G0 X119.605 Y86.95
G1 F600 X116.044 Y83.389 E16.38812
G0 F9000 X116.233 Y83.5
G0 X115.621 Y86.062
G0 X115.401 Y86.062
G1 F600 X119.604 Y84.936 E16.53284
G0 F9000 X119.086 Y84.936
G92 E16.53284
G0 Z6.4
;MESH:NONMESH
G0 F300 X119.086 Y84.936 Z7.4
G0 F9000 X115.591 Y90.325
G0 X115.322 Y90.594
;TIME_ELAPSED:6481.254386
G92 E16.53284
G0 Z6.4
;LAYER:36
G92 E16.53284
G0 Z6.4
;TYPE:WALL-INNER
G92 E16.53284
G0 Z6.4
;MESH:Plate (1).stl
G1 F600 X119.686 Y90.594 E16.67799
G1 X119.686 Y84.481 E16.88131
G1 X117.504 Y80.702 E17.02645
G1 X115.322 Y84.482 E17.17161
G1 X115.322 Y90.594 E17.3749
G0 F9000 X114.922 Y90.994
G92 E17.3749
G0 Z6.4
;TYPE:WALL-OUTER
G1 F600 X120.086 Y90.994 E17.54665
G1 X120.086 Y84.374 E17.76684
G1 X117.504 Y79.902 E17.93859
G1 X114.922 Y84.375 E18.11037
G1 X114.922 Y90.994 E18.33052
G0 F9000 X115.191 Y90.725
G0 X119.313 Y90.295
G0 X119.313 Y90.513
G92 E18.33052
G0 Z6.4
;TYPE:FILL
G1 F600 X119.605 Y89.424 E18.36802
G0 F9000 X119.386 Y89.424
G0 X119.386 Y86.75
G0 X119.605 Y86.75
G1 F600 X116.117 Y83.262 E18.53208
G0 F9000 X116.307 Y83.373
G0 X115.621 Y86.208
G0 X115.401 Y86.208
G1 F600 X119.604 Y85.082 E18.6768
G0 F9000 X119.086 Y85.082
G92 E18.6768
G0 Z6.4
;MESH:NONMESH
G0 F300 X119.086 Y85.082 Z7.6
G0 F9000 X115.591 Y90.325
G0 X115.322 Y90.594
;TIME_ELAPSED:6488.680452
G92 E18.6768
G0 Z6.4
;LAYER:37
G92 E18.6768
G0 Z6.4
;TYPE:WALL-INNER
G92 E18.6768
G0 Z6.4
;MESH:Plate (1).stl
G1 F600 X119.686 Y90.594 E18.82195
G1 X119.686 Y84.481 E19.02527
G1 X117.504 Y80.702 E19.17041
G1 X115.322 Y84.482 E19.31557
G1 X115.322 Y90.594 E19.51886
G0 F9000 X114.922 Y90.994
G92 E19.51886
G0 Z6.4
;TYPE:WALL-OUTER
G1 F600 X120.086 Y90.994 E19.69061
G1 X120.086 Y84.374 E19.9108
G1 X117.504 Y79.902 E20.08255
G1 X114.922 Y84.375 E20.25433
G1 X114.922 Y90.994 E20.47448
G0 F9000 X115.191 Y90.725
G0 X119.166 Y90.295
G0 X119.166 Y90.513
G92 E20.47448
G0 Z6.4
;TYPE:FILL
G1 F600 X119.605 Y88.875 E20.53088
G0 F9000 X119.386 Y88.875
G0 X119.386 Y86.549
G0 X119.605 Y86.549
G1 F600 X116.191 Y83.135 E20.69146
G0 F9000 X116.38 Y83.245
G0 X115.621 Y86.355
G0 X115.401 Y86.355
G1 F600 X119.604 Y85.229 E20.83618
G0 F9000 X119.086 Y85.229
G92 E20.83618
G0 Z6.4
;MESH:NONMESH
G0 F300 X119.086 Y85.229 Z7.8
G0 F9000 X115.591 Y90.325
G0 X115.322 Y90.594
;TIME_ELAPSED:6496.144912
G92 E20.83618
G0 Z6.4
;LAYER:38
G92 E20.83618
G0 Z6.4
;TYPE:WALL-INNER
G92 E20.83618
G0 Z6.4
;MESH:Plate (1).stl
G1 F600 X119.686 Y90.594 E20.98133
G1 X119.686 Y84.481 E21.18465
G1 X117.504 Y80.702 E21.32979
G1 X115.322 Y84.482 E21.47495
G1 X115.322 Y90.594 E21.67824
G0 F9000 X114.922 Y90.994
G92 E21.67824
G0 Z6.4
;TYPE:WALL-OUTER
G1 F600 X120.086 Y90.994 E21.85
G1 X120.086 Y84.374 E22.07018
G1 X117.504 Y79.902 E22.24193
G1 X114.922 Y84.375 E22.41371
G1 X114.922 Y90.994 E22.63386
G0 F9000 X115.191 Y90.725
G0 X119.02 Y90.295
G0 X119.02 Y90.514
G92 E22.63386
G0 Z6.4
;TYPE:FILL
G1 F600 X119.605 Y88.331 E22.70903
G0 F9000 X119.386 Y88.331
G0 X119.386 Y86.35
G0 X119.605 Y86.35
G1 F600 X116.263 Y83.008 E22.86622
G0 F9000 X116.453 Y83.119
G0 X115.621 Y86.501
G0 X115.402 Y86.501
G1 F600 X119.605 Y85.374 E23.01095
G0 F9000 X119.086 Y85.374
G92 E23.01095
G0 Z6.4
;MESH:NONMESH
G0 F300 X119.086 Y85.374 Z8
G0 F9000 X115.591 Y90.325
G0 X115.322 Y90.594
;TIME_ELAPSED:6503.646875
G92 E23.01095
G0 Z6.4
;LAYER:39
G92 E23.01095
G0 Z6.4
;TYPE:WALL-INNER
G92 E23.01095
G0 Z6.4
;MESH:Plate (1).stl
G1 F600 X119.686 Y90.594 E23.1561
G1 X119.686 Y84.481 E23.35942
G1 X117.504 Y80.702 E23.50456
G1 X115.322 Y84.482 E23.64972
G1 X115.322 Y90.594 E23.85301
G0 F9000 X114.922 Y90.994
G92 E23.85301
G0 Z6.4
;TYPE:WALL-OUTER
G1 F600 X120.086 Y90.994 E24.02477
G1 X120.086 Y84.374 E24.24495
G1 X117.504 Y79.902 E24.4167
G1 X114.922 Y84.375 E24.58848
G1 X114.922 Y90.994 E24.80863
G0 F9000 X115.483 Y90.513
G92 E24.80863
G0 Z6.4
;TYPE:FILL
G1 F600 X115.401 Y90.431 E24.81248
G0 F9000 X115.591 Y90.325
G0 X118.874 Y90.295
G0 X118.874 Y90.514
G1 F600 X119.605 Y87.786 E24.90642
G0 F9000 X119.386 Y87.786
G0 X119.386 Y86.151
G0 X119.605 Y86.151
G1 F600 X116.336 Y82.882 E25.06018
G0 F9000 X116.526 Y82.993
G0 X115.621 Y86.647
G0 X115.402 Y86.647
G1 F600 X119.604 Y85.521 E25.20487
G0 F9000 X119.086 Y85.521
G92 E25.20487
G0 Z6.4
;MESH:NONMESH
G0 F300 X119.086 Y85.521 Z8.2
G0 F9000 X115.591 Y90.325
G0 X115.322 Y90.594
;TIME_ELAPSED:6511.242621
G92 E25.20487
G0 Z6.4
;LAYER:40
G92 E25.20487
G0 Z6.4
;TYPE:WALL-INNER
G92 E25.20487
G0 Z6.4
;MESH:Plate (1).stl
G1 F600 X119.686 Y90.594 E25.35002
G1 X119.686 Y84.481 E25.55334
G1 X117.504 Y80.702 E25.69848
G1 X115.322 Y84.482 E25.84364
G1 X115.322 Y90.594 E26.04693
G0 F9000 X114.922 Y90.994
G92 E26.04693
G0 Z6.4
;TYPE:WALL-OUTER
G1 F600 X120.086 Y90.994 E26.21868
G1 X120.086 Y84.374 E26.43887
G1 X117.504 Y79.902 E26.61062
G1 X114.922 Y84.375 E26.7824
G1 X114.922 Y90.994 E27.00255
G0 F9000 X115.401 Y90.231
G92 E27.00255
G0 Z6.4
;TYPE:FILL
G1 F600 X115.684 Y90.513 E27.01583
G0 F9000 X115.684 Y90.295
G0 X118.727 Y90.295
G0 X118.727 Y90.514
G1 F600 X119.605 Y87.237 E27.12867
G0 F9000 X119.386 Y87.237
G0 X119.386 Y85.95
G0 X119.605 Y85.95
G1 F600 X116.41 Y82.754 E27.27898
G0 F9000 X116.6 Y82.865
G0 X115.621 Y86.794
G0 X115.402 Y86.794
G1 F600 X119.604 Y85.668 E27.42367
G0 F9000 X119.086 Y85.668
G92 E27.42367
G0 Z6.4
;MESH:NONMESH
G0 F300 X119.086 Y85.668 Z8.4
G0 F9000 X115.591 Y90.325
G0 X115.322 Y90.594
;TIME_ELAPSED:6518.926200
G92 E27.42367
G0 Z6.4
;LAYER:41
G92 E27.42367
G0 Z6.4
;TYPE:WALL-INNER
G92 E27.42367
G0 Z6.4
;MESH:Plate (1).stl
G1 F976.9 X119.686 Y90.594 E27.56882
G1 X119.686 Y84.481 E27.77213
G1 X117.504 Y80.702 E27.91727
G1 X115.322 Y84.482 E28.06244
G1 X115.322 Y90.594 E28.26572
G0 F9000 X114.922 Y90.994
G92 E28.26572
G0 Z6.4
;TYPE:WALL-OUTER
G1 F976.9 X120.086 Y90.994 E28.43748
G1 X120.086 Y84.374 E28.65766
G1 X117.504 Y79.902 E28.82941
G1 X114.922 Y84.375 E29.00119
G1 X114.922 Y90.994 E29.22134
G0 F9000 X115.191 Y90.725
G0 X115.422 Y90.234
G0 X115.682 Y90.234
G92 E29.22134
G0 Z6.4
;TYPE:SKIN
G1 F976.9 X115.682 Y84.579 E29.40943
G1 X117.504 Y81.422 E29.53066
G1 X119.326 Y84.579 E29.6519
G1 X119.326 Y90.234 E29.83998
G1 X115.682 Y90.234 E29.96118
G0 F9000 X115.422 Y90.234
G0 X118.704 Y90.494
G0 X118.704 Y90.033
G1 F976.9 X119.125 Y89.612 E29.98098
G0 F9000 X119.125 Y89.046
G1 F976.9 X118.138 Y90.033 E30.02741
G0 F9000 X117.572 Y90.033
G1 F976.9 X119.125 Y88.48 E30.10046
G0 F9000 X119.125 Y87.915
G1 F976.9 X117.007 Y90.033 E30.20008
G0 F9000 X116.441 Y90.033
G1 F976.9 X119.125 Y87.349 E30.32633
G0 F9000 X119.125 Y86.783
G1 F976.9 X115.881 Y90.028 E30.47894
G0 F9000 X115.881 Y89.462
G1 F976.9 X119.125 Y86.218 E30.63153
G0 F9000 X119.125 Y85.652
G1 F976.9 X115.881 Y88.896 E30.78412
G0 F9000 X115.881 Y88.331
G1 F976.9 X119.125 Y85.086 E30.93673
G0 F9000 X119.084 Y84.562
G1 F976.9 X115.881 Y87.765 E31.08739
G0 F9000 X115.881 Y87.199
G1 F976.9 X118.877 Y84.203 E31.22831
G0 F9000 X118.67 Y83.845
G1 F976.9 X115.881 Y86.634 E31.3595
